X: 2
T: The Reel With The Birl
R: reel
M: 4/4
L: 1/8
K: Edor
E2 BE dEBE|E2 BE AGFD|E2 BE dE B2|1 d2 dB AGFD:|2 d2 dB A4||
B3 d e3 g|fd d2 d^d ef|g4 g2 fe|fa a2 afed| 
fb b2 bafe|fa a2 afed|B3 B BAFA|d2 dB AGFD||